X: 0207
T: The Princess Royal
P: The Princess Royal
C:Gow's Repository
R:Reel (8x28)
B:RSCDS 2-7
Z:Anselm Lingnau <anselm@strathspey.org>
M:2/4
L:1/16
K:Gm
|:GA|"Gm"B2AB G2dc|B2AB G2d2|"Cm"e2ed "F7"c2fe|"Bb"de"F"cd "Gm"B2{c}BA|
     "Gm"B2gB "Dm"A2fA|"Eb"GABG "D7"D2dc|\
				 "Gm"BABG "D7"D2[^F2C2]|"Gm"[G4B,4][G2B,2]:|
d|"Gm"g2g^f "D7"{a}gfga|"Bb"b2B2 B2ba|"Gm"bagf "Cm"edcB|"F"ABcA "F7"F2GA|\
  "Bb"B2AB "F"c2Bc|"Bb"[d2F2][d2F2] "Eb"[g4B4G4]|
	"Bb"[f2B2F2][B2F2] "F7"[e4A4F4]|"Bb"[d2B2F2]"Gm"G2 "Ao"[c4G4E4]|\
  "Gm"BcBA GABG|"D"^FGAF "D7"D2dc|"Gm"BABG "D7"D2[^F2C2]|"Gm"[G4B,4][G2B,2]|]
%%center Book02/0207-Princess_Royal-AL.abc

%%sep 1 1 500
%%sep 1 1 500

